**kern	**kern
*staff2	*staff1
*clefF4	*clefG2
*k[b-e-]	*k[b-e-]
*M4/4	*M4/4
=24	=24
8BB-L	4B-
8BB	.
8C	4r
8C#J	.
8DL	4r
8E-	.
8E	(4b- 4dd
8FJ	.
=25	=25
8F#L	4a') 4cc'
8G	.
8G#	4r
8AJ	.
8B-L	4r
8B	.
8c	([4a [4ff
8c#J	.
=26	=26
8dL	4a] 4ff]
8e-	.
8e	4a) 4ee-
8fJ	.
8eL	(4a' 4ee-'
8f	.
8e	4a') 4ee-'
8fJ	.
=27	=27
8eL	4b- 4dd
8f	.
8g	4r
8fJ	.
8e-L	2r
8d	.
8c	.
8B-J	.
=28	=28
*^	*
8AL	2E-	2r
8G	.	.
8F#	.	.
8GJ	.	.
2r	2r	(8B-L
.	.	8e-
.	.	8f#
.	.	8gJ)
*v	*v	*
=29	=29
1D 1B-	(8fL
.	8g
.	8a
.	8b-J
.	8ccL
.	8dd
.	8ee-
.	8ffJ)
=30	=30
4A 4f	(8ee-L
.	8cc
4B- 4f	8dd
.	8b-J
4A 4f	8ee-L
.	8cc
4B- 4f	8dd
.	8b-J)
=31	=31
4F 4f	(8ccL
.	8a
4r	8f
.	8cJ
4r	8AL
.	8FJ)
(8CL	4r
8AAJ)	.
=	=
*-	*-
